X:1
T:Remember Your Mother’s Prayer
T:Remember Your Mother’s Prayer
T:J. W. Ward
T:Judson Wheeler Van DeVenter, 1894
T:Public Domain Courtesy of the Cyber Hymnal™
C:J. W. Ward
Z:Public Domain
Z:Courtesy of the Cyber Hymnal™
%%score 1 ( 2 3 )
L:1/8
Q:1/4=95
M:6/8
K:Ab
V:1 treble 
V:2 bass 
V:3 bass 
V:1
 [CE] | [CE][DF][CE] [EA][DG][CA] | [DB] [DF]4 [DF] | [CE][B,D][A,C] [EA][EA][Ec] | %4
w: 1.~This|life is be- set with temp-|ta- tion, Sur-|round- ing us ev- er- y-|
w: 2.~“My|life and its la- bors are|o- ver, I’m|go- ing to rest o- ver|
w: 3.~“Though|gone, I shall ne- ver for-|get you, But|wait in my ma- n- sion|
 [EB]3- [EB]2 [CE] | [CE][DF][CE] [EA][DG][CA] | [DB] [DF]4 [DF] | [CE][=B,=D][_B,_D] [Ec]2 [DB] | %8
w: where, * But|Je- sus is a- ble to|keep you— Re-|mem- ber your mo- ther’s|
w: there; * A-|bide in the love of your|Sav- ior”— Re-|mem- ber your mo- ther’s|
w: fair, * That|some- time I’ll meet you up|yon- der”— Re-|mem- ber your mo- ther’s|
 [CA]3- [CA]2 ||"^Refrain" [CA] | [Fd][Fd][Fd] [Fd][FA][FB] | [Ec] [Ec]4 [Ec] | %12
w: prayer. *||||
w: prayer. *|“Re-|mem- ber, my child, Oh, re-|mem- ber, The|
w: prayer. *||||
 [Ae][Ec][Ec] [EB]2 [=DA] | [EB]3- [EB]2 [CE] | [CE][DF][CE] [EA][DG][CA] | [DB] [DF]4 [DF] | %16
w: ||||
w: years of ma- ter- nal|care; * The|days that I prayed for you,|dear one— Re-|
w: ||||
 [CE][=B,=D][_B,_D] [Ec]2 [DB] | [CA]3- [CA]2 |] %18
w: ||
w: mem- ber your mo- ther’s|prayer.” *|
w: ||
V:2
 [A,,A,] | [A,,A,][A,,A,][A,,A,] [C,A,][B,,E,][A,,E,] | [D,F,] [D,A,]4 [D,A,] | %3
 [A,,A,][A,,E,][A,,E,] [C,A,][C,A,][A,,A,] | [E,G,]3- [E,G,]2 [A,,A,] | %5
 [A,,A,][A,,A,][A,,A,] [C,A,][B,,E,][A,,E,] | [D,F,] [D,A,]4 [D,A,] | %7
 [E,A,][E,F,][E,G,] [E,A,]2 E, | [A,,E,]3- [A,,E,]2 || A, | [D,A,][D,A,][D,A,] [D,A,][D,A,][D,A,] | %11
 [A,,A,] [A,,A,]4 A, | [A,C]A,A, [G,B,]2 [F,B,] | [E,G,]3- [E,G,]2 [A,,A,] | %14
 [A,,A,][A,,A,][A,,A,] [C,A,][B,,E,][A,,E,] | [D,F,] [D,A,]4 [D,A,] | %16
 [E,A,][E,F,][E,G,] [E,A,]2 E, | [A,,E,]3- [A,,E,]2 |] %18
V:3
 x | x6 | x6 | x6 | x6 | x6 | x6 | x5 E, | x5 || A, | x6 | x5 A, | x A,A, x3 | x6 | x6 | x6 | %16
 x5 E, | x5 |] %18

